X:1
T:Jingle Bells
T:Jingle Bells
T:Spencer 2019
T:arr. Gibson
T:Winter Concert 2019
T:Winter Concert 2019
T:Winter Concert 2019
C:arr. Gibson
Z:Winter Concert 2019
%%score 1 2 3 4
L:1/8
Q:1/4=130
M:4/4
K:D
V:1 treble nm="Violin" snm="Vln."
V:2 alto nm="Viola" snm="Vla."
V:3 bass nm="Cello" snm="Cello"
V:4 bass transpose=-12 nm="Bass" snm="Bass"
V:1
!f! vF2 F2 F2 z2 | F2 F2 F2 z2 | F2 A2 D3 E | F4 z4 | vG2 G2 G2 G2 | G2 F2 F2 FF | F2 E2 E2 F2 | %7
 E2 z2 A2 z2 | vF2 F2 F2 z2 | F2 F2 F2 z2 | F2 A2 D3 E | F4 z4 | vG2 G2 G2 G2 | G2 F2 F2 FF | %14
 A2 A2 G2 E2 | D4 z4 |"^A" vA2 f2 e2 d2 | A4 z2 vAA | A2 f2 e2 d2 | B4 z4 | vBB"^L2" g2 f2 e2 | %21
 c4 z4 | va2 a2 g2 e2 | f4 z4 | vA2 f2 e2 d2 | A4 z4 | vA2 f2 e2 d2 | B4 z2 uB2 | %28
 B2"^L2" g2 f2 e2 | a2 a2 a2 a2 | b2 a2 g2 e2 | d2 z2 a2 z2 |"^div.""^B" v[Ff]2 [Ff]2 [Ff]2 z2 | %33
 [Ff]2 [Ff]2 [Ff]2 z2 | [Ff]2 [Aa]2 [Dd]3 [Ee] | [Ff]4 z4 | v[Gg]2 [Gg]2 [Gg]2 [Gg]2 | %37
 [Gg]2 [Ff]2 [Ff]2 [Ff][Ff] | [Ff]2 [Ee]2 [Ee]2 [Ff]2 | [Ee]2 z2 [Aa]2 z2 | v[Ff]2 [Ff]2 [Ff]2 z2 | %41
 [Ff]2 [Ff]2 [Ff]2 z2 | [Ff]2 [Aa]2 [Dd]3 [Ee] | [Ff]4 z4 | v[Gg]2 [Gg]2 [Gg]2 [Gg]2 | %45
 [Gg]2 [Ff]2 [Ff]2 [Ff][Ff] | [Aa]2 [Aa]2 [Gg]2 [Ee]2 | [Dd]4 z4 |] %48
V:2
!f! vF2 F2 F2 z2 | F2 F2 F2 z2 | F2 A2 D3 E | F4 z4 | vG2 G2 G2 G2 | G2 F2 F2 FF | F2 E2 E2 F2 | %7
 E2 z2 A2 z2 | vF2 F2 F2 z2 | F2 F2 F2 z2 | F2 A2 D3 E | F4 z4 | vG2 G2 G2 G2 | G2 F2 F2 FF | %14
 A2 A2 G2 E2 | D4 z4 | vA,2 F2 E2 D2 | A,4 z2 vA,A, | A,2 F2 E2 D2 | B,4 z4 | vB,B, G2 F2 E2 | %21
"^H3" C4 z4 | vA2 A2 G2 E2 | F4 z4 | vA,2 F2 E2 D2 | A,4 z4 | vA,2 F2 E2 D2 | B,4 z2 uB,2 | %28
 B,2 G2 F2 E2 | A2 A2 A2 A2 | B2 A2 G2 E2 | D2 z2 A2 z2 | vF2 F2 F2 z2 | F2 F2 F2 z2 | F2 A2 D3 E | %35
 F4 z4 | vG2 G2 G2 G2 | G2 F2 F2 FF | F2 E2 E2 F2 | E2 z2 A2 z2 | vF2 F2 F2 z2 | F2 F2 F2 z2 | %42
 F2 A2 D3 E | F4 z4 | vG2 G2 G2 G2 | G2 F2 F2 FF | A2 A2 G2 E2 | D4 z4 |] %48
V:3
!f! vF,2 F,2 F,2 z2 | F,2 F,2 F,2 z2 | F,2 A,2 D,3 E, | F,4 z4 | vG,2 G,2 G,2 G,2 | %5
 G,2 F,2 F,2 F,F, | F,2 E,2 E,2 F,2 | E,2 z2 A,2 z2 | vF,2 F,2 F,2 z2 | F,2 F,2 F,2 z2 | %10
 F,2 A,2 D,3 E, | F,4 z4 | vG,2 G,2 G,2 G,2 | G,2 F,2 F,2 F,F, | A,2 A,2 G,2 E,2 | D,4 z4 | %16
 vA,,2 F,2 E,2 D,2 | A,,4 z2 vA,,A,, | A,,2 F,2 E,2 D,2 | B,,4 z4 | vB,,B,, G,2 F,2 E,2 | %21
"^x4" C,4 z4 | vA,2 A,2 G,2 E,2 | F,4 z4 | vA,,2 F,2 E,2 D,2 | A,,4 z4 | vA,,2 F,2 E,2 D,2 | %27
 B,,4 z2 uB,,2 | B,,2 G,2 F,2 E,2 | A,2 A,2 A,2 A,2 | B,2 A,2 G,2 E,2 | D,2 z2 A,2 z2 | %32
 vF,2 F,2 F,2 z2 | F,2 F,2 F,2 z2 | F,2 A,2 D,3 E, | F,4 z4 | vG,2 G,2 G,2 G,2 | G,2 F,2 F,2 F,F, | %38
 F,2 E,2 E,2 F,2 | E,2 z2 A,2 z2 | vF,2 F,2 F,2 z2 | F,2 F,2 F,2 z2 | F,2 A,2 D,3 E, | F,4 z4 | %44
 vG,2 G,2 G,2 G,2 | G,2 F,2 F,2 F,F, | A,2 A,2 G,2 E,2 | D,4 z4 |] %48
V:4
"^pizz"!ff! D,2 z2 A,,2 z2 | D,2 z2 A,,2 z2 | D,2 z2 A,,2 z2 | D,2 D,2 E,2 F,2 | G,2 z2 G,2 z2 | %5
 D,2 z2 F,2 z2 | E,2 z2 B,,2 z2 | A,,2 A,,2 B,,2 C,2 | D,2 z2 A,,2 z2 | D,2 z2 A,,2 z2 | %10
 D,2 z2 A,,2 z2 | D,2 D,2 E,2 F,2 | G,2 z2 G,2 z2 | D,2 z2 F,2 z2 | E,2 z2 A,,2 z2 | %15
 D,2 C,2 B,,2 A,,2 | D,2 z2 A,,2 z2 | D,2 z2 A,,2 z2 | D,2 z2 E,2 F,2 | G,2 z2 D,2 z2 | %20
 G,2 z2 F,2 E,2 | A,,2 z2 E,2 z2 | A,2 A,,2 B,,2 C,2 | D,2 C,2 B,,2 A,,2 | D,2 z2 A,,2 z2 | %25
 D,2 z2 A,,2 z2 | D,2 z2 E,2 F,2 | G,2 z2 D,2 z2 | G,2 z2 F,2 E,2 | A,,2 z2 E,2 z2 | %30
 A,2 A,,2 B,,2 C,2 | D,2 z2 A,,4 | D,2 z2 A,,2 z2 | D,2 z2 A,,2 z2 | D,2 z2 A,,2 z2 | %35
 D,2 D,2 E,2 F,2 | G,2 z2 G,2 z2 | D,2 z2 F,2 z2 | E,2 z2 B,,2 z2 | A,,2 A,,2 B,,2 C,2 | %40
 D,2 z2 A,,2 z2 | D,2 z2 A,,2 z2 | D,2 z2 A,,2 z2 | D,2 D,2 E,2 F,2 | G,2 z2 G,2 z2 | %45
 D,2 z2 F,2 z2 | E,2 z2 A,,2 z2 | D,2 A,,2 D,2 z2 |] %48

